img/interface/arrow-circle.svg

<svg width="512" height="512" fill="none" xmlns="http://www.w3.org/2000/svg"><path d="M512 256C512 114.833 397.167 0 256 0S0 114.833 0 256s114.853 256 256 256 256-114.833 256-256zm-472.341 0c0-119.275 97.046-216.341 216.341-216.341S472.341 136.725 472.341 256c0 119.295-97.046 216.341-216.341 216.341S39.659 375.275 39.659 256z" fill="#B1A1D7"/><path d="M228.635 369.227l99.148-99.148c7.694-7.734 7.694-20.226 0-27.96l-99.148-99.148c-7.416-6.365-18.382-6.365-25.798 0-8.309 7.119-9.28 19.651-2.161 27.96L285.744 256l-85.069 85.267c-7.694 7.734-7.694 20.226 0 27.96 7.734 7.694 20.227 7.694 27.96 0z" fill="#B1A1D7"/></svg>

<svg width="512" height="512" viewBox="0 0 512 512" fill="none" xmlns="http://www.w3.org/2000/svg">
<path d="M512 256C512 114.833 397.167 0 256 0C114.833 0 0 114.833 0 256C0 397.167 114.853 512 256 512C397.147 512 512 397.167 512 256ZM39.659 256C39.659 136.725 136.705 39.659 256 39.659C375.295 39.659 472.341 136.725 472.341 256C472.341 375.295 375.295 472.341 256 472.341C136.705 472.341 39.659 375.275 39.659 256V256Z" fill="#B1A1D7"/>
<path d="M228.635 369.227L327.783 270.079C335.477 262.345 335.477 249.853 327.783 242.119L228.635 142.971C221.219 136.606 210.253 136.606 202.837 142.971C194.528 150.09 193.557 162.622 200.676 170.931L285.744 256L200.675 341.267C192.981 349.001 192.981 361.493 200.675 369.227C208.409 376.921 220.902 376.921 228.635 369.227V369.227Z" fill="#B1A1D7"/>
</svg>
